X:1
T: Country Dance
P:for Calver Lodge
R:Reel
Q: 232
K:D
M:4/4
L:1/8
|:A2|d3c ed cB|A^G AB AB AF|DB AF DB AF|G2 E2 E2 A2|
d3c ed cB|A^G AB AB AF|DB AF AG EF|D2 d2 d2:|
f2|ef gf ed ce|de fg a2 fa|ag eg gf df|ed ef e3f|
ef gf ed ce|de fg a2 fa|ag eg gf df|ed cB AA Bc||
